X:1
T:Rachel's French Tune
C:Rachel Hall
M:C
L:1/4
K:G
P:in G
|:"G" G2 d2 | "C"ce "G" d2 | ddcB | "F" ccBA|
"G" G2 d2 | "C" ce "G" d2| ddcB | "D"A2A2:|
|: "C" gecg | ec "G"d2 | dBGd | dB "D" A2|
"C" gecg | ec "G"d2 | ddcB | "D"A2A2:|
P:(in A)
K:A
|:"A" A2 e2 | "D"df "A" e2 | eedc | "G" ddcB|
"A" A2 e2 | "D" df "A" e2| eedc | "E"B2B2:|
|: "D" afda | fd "A"e2 | ecAe | ec "E" B2|
"D" afda | fd "A"e2 | eedc | "E"B2B2:|
P:Harmony in A
|:A2A2 |AAc2 |ccBA | =GGAB|
  A2A2 |AAc2 |ccBA | E2E2 :|
|:.D zz .D| z.F.Az| .A zz.A| .c.d.ez|
.D zz .D| z.F.Az|AABA | E2E2 :|
